T: Peat-Fire Flame
M: 4/4
L: 1/8
K: Dmin
"Part A" || dfcd/c/ AG A2 | A8 ||
"Part B" || D>EFE DCA2 | AGGF/G/ AGGA | D>EFE DCAA/G/ | FDEC D2 D2 ||
"Part C" || F>GAf/e/ dc2A | AGGF/G/ AGGA | F>GAf/e/ dcA>G | FDEC D2 D2 ||
